X:1
T:Bee's Wax, Sheep Skins
M:2/4
L:1/8
R:Reel
S:Pacal Gemme
F:http/www.ibiblio.org/fiddlers/SHE_SHEN.htm 2010-2-1
K:Amix
|:E/A/A/A/ B/A/G/B/|A/G/A/a/ g/f/e/f/|g/e/f/d/ e/f/e/d/|B/e/e/d/ B/A/A:|
|:aa/b/ a/g/g/a/|b/a/g/f/ e/d/e/f/|g/e/f/d/ e/f/e/d/|B/e/e/d/ B/A/ A:|
